src/images/rectangle-list-regular-full.svg

<?xml version="1.0" encoding="utf-8"?>
<!-- Generator: Adobe Illustrator 26.1.0, SVG Export Plug-In . SVG Version: 6.00 Build 0)  -->
<svg version="1.1" id="Layer_1" xmlns="http://www.w3.org/2000/svg" xmlns:xlink="http://www.w3.org/1999/xlink" x="0px" y="0px"
	 viewBox="0 0 640 640" style="enable-background:new 0 0 640 640;" xml:space="preserve">
<style type="text/css">
	.st0{fill:#FFFFFF;}
</style>
<path class="st0" d="M128,176c-8.8,0-16,7.2-16,16v256c0,8.8,7.2,16,16,16h384c8.8,0,16-7.2,16-16V192c0-8.8-7.2-16-16-16H128z
	 M64,192c0-35.3,28.7-64,64-64h384c35.3,0,64,28.7,64,64v256c0,35.3-28.7,64-64,64H128c-35.3,0-64-28.7-64-64V192z M224,384
	c0,17.7-14.3,32-32,32s-32-14.3-32-32s14.3-32,32-32S224,366.3,224,384z M192,288c-17.7,0-32-14.3-32-32s14.3-32,32-32
	s32,14.3,32,32S209.7,288,192,288z M296,232h160c13.3,0,24,10.7,24,24c0,13.3-10.7,24-24,24H296c-13.3,0-24-10.7-24-24
	C272,242.7,282.7,232,296,232z M296,360h160c13.3,0,24,10.7,24,24s-10.7,24-24,24H296c-13.3,0-24-10.7-24-24S282.7,360,296,360z"/>
</svg>

<svg xmlns="http://www.w3.org/2000/svg" viewBox="0 0 640 640"><!--!Font Awesome Free 7.1.0 by @fontawesome - https://fontawesome.com License - https://fontawesome.com/license/free Copyright 2025 Fonticons, Inc.--><path d="M128 176C119.2 176 112 183.2 112 192L112 448C112 456.8 119.2 464 128 464L512 464C520.8 464 528 456.8 528 448L528 192C528 183.2 520.8 176 512 176L128 176zM64 192C64 156.7 92.7 128 128 128L512 128C547.3 128 576 156.7 576 192L576 448C576 483.3 547.3 512 512 512L128 512C92.7 512 64 483.3 64 448L64 192zM224 384C224 401.7 209.7 416 192 416C174.3 416 160 401.7 160 384C160 366.3 174.3 352 192 352C209.7 352 224 366.3 224 384zM192 288C174.3 288 160 273.7 160 256C160 238.3 174.3 224 192 224C209.7 224 224 238.3 224 256C224 273.7 209.7 288 192 288zM296 232L456 232C469.3 232 480 242.7 480 256C480 269.3 469.3 280 456 280L296 280C282.7 280 272 269.3 272 256C272 242.7 282.7 232 296 232zM296 360L456 360C469.3 360 480 370.7 480 384C480 397.3 469.3 408 456 408L296 408C282.7 408 272 397.3 272 384C272 370.7 282.7 360 296 360z"/></svg>
